X:1
T:Elisæi Historie. Femte sang
T:Elisæi Historie. Femte sang
T:Om Samariæ Bestoldning 
T:Ole Andersen Mærli, Sørum
C:Ole Andersen Mærli, Sørum
L:1/8
M:3/4
K:Eb
V:1 treble nm="Piano" snm="Pno."
V:1
 Gc d |"Cm" e3 e"G" de |"Cm" c2"Gm" GB de |"D7" c3 d B=A |"Gm" G3 F"G" G=B |"Cm" c3 =B"Gm" GF | %6
w: Der Ben- ha-|dad en Tid be-|lag- de Sa- ma- ri-|am den Ho- ved-|stad, Saa stor en|Hun- ger Sta- den|
"Cm" E2 CD EF | G3 c"G" =BB |"Cm" c2 z4 |] %9
w: pla`g- te, At i hvert|Hus var Trang paa|Mad.|

